img/partners/rfb-mono.svg

<svg width="100" height="100" viewBox="0 0 100 100" fill="none" xmlns="http://www.w3.org/2000/svg">
<path d="M35.5302 45.3701C34.9902 45.3701 34.2502 45.4001 33.6802 45.4201V48.7401C34.2802 48.8001 34.9602 48.8501 35.5602 48.8501C37.0402 48.8501 38.1202 48.2201 38.1202 47.0501C38.1202 45.9701 37.3002 45.3701 35.5302 45.3701Z" fill="#A4A9AD"/>
<path d="M53.3801 46.6798C53.3801 45.7698 52.6701 45.3398 51.2401 45.3398C50.7001 45.3398 49.4901 45.3898 48.9001 45.4298V48.0498H51.3201C52.4401 48.0498 53.3801 47.6498 53.3801 46.6798Z" fill="#A4A9AD"/>
<path d="M51.5001 51.1299H48.9001V53.8099C49.2201 53.8699 50.5601 53.9499 51.3501 53.9499C53.0001 53.9499 53.8601 53.4599 53.8601 52.4999C53.8701 51.5799 52.9801 51.1299 51.5001 51.1299Z" fill="#A4A9AD"/>
<path d="M81.8401 46.6799C81.0901 38.6899 77.4201 31.3299 71.4801 25.9599C65.5801 20.6099 57.9701 17.6699 50.0401 17.6699C49.0501 17.6699 48.0401 17.7199 47.0401 17.8099C38.5501 18.5999 30.8701 22.6599 25.4101 29.2399C19.9501 35.8199 17.3801 44.1199 18.1701 52.6099C18.9201 60.5899 22.5901 67.9499 28.5301 73.3299C34.4301 78.6799 42.0501 81.6199 49.9801 81.6199C50.9701 81.6199 51.9801 81.5699 52.9801 81.4799C61.4801 80.6899 69.1701 76.6299 74.6301 70.0599C80.0601 63.4899 82.6301 55.1899 81.8401 46.6799ZM72.6501 68.4399C67.6301 74.4899 60.5501 78.2199 52.7201 78.9499C51.8001 79.0399 50.8701 79.0799 49.9601 79.0799C42.6601 79.0799 35.6501 76.3699 30.2201 71.4499C24.7601 66.4999 21.3701 59.7199 20.6901 52.3699C19.9601 44.5499 22.3301 36.9099 27.3601 30.8599C32.3901 24.7999 39.4601 21.0699 47.2701 20.3399C48.1901 20.2499 49.1201 20.2099 50.0301 20.2099C57.3301 20.2099 64.3401 22.9199 69.7701 27.8399C75.2301 32.7899 78.6201 39.5599 79.3101 46.9199C80.0401 54.7499 77.6701 62.3899 72.6501 68.4399Z" fill="#A4A9AD"/>
<path d="M68.7401 28.9797C63.5901 24.3097 56.9501 21.7397 50.0301 21.7397C49.1601 21.7397 48.2801 21.7797 47.4101 21.8597C40.0001 22.5497 33.3001 26.0897 28.5401 31.8297C23.7801 37.5697 21.5301 44.8097 22.2201 52.2197C22.8701 59.1897 26.0801 65.6098 31.2601 70.2998C36.4101 74.9698 43.0501 77.5297 49.9701 77.5297C50.8401 77.5297 51.7201 77.4898 52.5901 77.4098C60.0101 76.7198 66.7201 73.1797 71.4701 67.4497C76.2301 61.7197 78.4701 54.4697 77.7801 47.0497C77.1301 40.0897 73.9201 33.6697 68.7401 28.9797ZM39.1501 57.1097L35.5801 52.1297C35.1301 52.1297 34.2901 52.0997 33.6801 52.0497V57.1097H30.2001V44.9397L29.8001 42.4797C31.0401 42.2897 33.5401 42.0797 35.1601 42.0797C40.2001 42.0797 41.8301 44.1797 41.8301 47.0597C41.8301 48.9997 40.9201 50.5097 39.2501 51.3697L43.5901 57.1097H39.1501V57.1097ZM51.0801 57.2297C49.4801 57.2297 47.2101 57.1197 45.4401 56.9997V44.9797L45.0401 42.5597C45.9601 42.3797 48.9301 42.0697 51.3101 42.0697C55.3001 42.0697 56.8701 43.9997 56.8701 46.0497C56.8701 48.1697 55.4301 49.2397 55.4301 49.2397V49.2697C55.4301 49.2697 57.3901 50.1697 57.3901 52.5697C57.3801 55.7197 54.6701 57.2297 51.0801 57.2297ZM71.3501 45.4297H63.9901V48.4797H70.2801V51.7597H63.9901V57.1197H60.5201V44.9797L60.1301 42.1497H71.8301L71.3501 45.4297Z" fill="#A4A9AD"/>
</svg>

<?xml version="1.0" encoding="utf-8"?>
<!-- Generator: Adobe Illustrator 26.4.1, SVG Export Plug-In . SVG Version: 6.00 Build 0)  -->
<svg version="1.1" id="Слой_1" xmlns="http://www.w3.org/2000/svg" xmlns:xlink="http://www.w3.org/1999/xlink" x="0px" y="0px"
	 viewBox="0 0 100 100" style="enable-background:new 0 0 100 100;" xml:space="preserve">
<style type="text/css">
	.st0{fill:none;}
	
		.st1{clip-path:url(#SVGID_00000103951665885355968010000016961848445171848588_);fill-rule:evenodd;clip-rule:evenodd;fill:url(#SVGID_00000059272171310016492960000001258565119414435741_);}
	.st2{fill:#151213;}
	.st3{fill-rule:evenodd;clip-rule:evenodd;fill:#151213;}
	.st4{fill:#FFFFFF;}
	.st5{fill:#009226;}
	.st6{fill-rule:evenodd;clip-rule:evenodd;fill:#FFFFFF;}
	.st7{fill:#00ADEE;}
	.st8{fill-rule:evenodd;clip-rule:evenodd;fill:#FCB810;}
	.st9{fill-rule:evenodd;clip-rule:evenodd;fill:#008A8D;}
	.st10{fill:none;stroke:#181314;stroke-width:0.5854;stroke-miterlimit:22.9256;}
	.st11{fill-rule:evenodd;clip-rule:evenodd;fill:#ABABAD;}
	.st12{fill-rule:evenodd;clip-rule:evenodd;fill:#EE7607;}
	.st13{fill:none;stroke:#FFFFFF;stroke-width:1.4635;stroke-miterlimit:22.9256;}
	.st14{fill-rule:evenodd;clip-rule:evenodd;fill:#181314;}
	.st15{fill-rule:evenodd;clip-rule:evenodd;fill:#BF0808;}
	.st16{fill-rule:evenodd;clip-rule:evenodd;fill:#DA020E;}
	.st17{fill-rule:evenodd;clip-rule:evenodd;fill:#E2000F;}
	.st18{fill-rule:evenodd;clip-rule:evenodd;fill:#0C2F6E;}
	.st19{fill-rule:evenodd;clip-rule:evenodd;fill:#D1050C;}
	.st20{fill-rule:evenodd;clip-rule:evenodd;fill:#0F377F;}
	.st21{fill-rule:evenodd;clip-rule:evenodd;fill:#A40B02;}
	.st22{fill:#C8002D;}
	.st23{fill:#2B4135;}
	.st24{fill:url(#SVGID_00000057133167050016908980000013377709600262791829_);}
	.st25{fill:url(#SVGID_00000101100891560119467100000006344167127118052017_);}
	.st26{fill:#00519F;}
	.st27{fill:#0F1B41;}
	.st28{fill:#EB6608;}
	.st29{fill:#008AD1;}
	.st30{fill:#1D1D1B;}
	.st31{fill-rule:evenodd;clip-rule:evenodd;fill:#1D1D1B;}
	.st32{fill-rule:evenodd;clip-rule:evenodd;fill:#E8501E;}
	.st33{fill:none;stroke:#1D1D1B;stroke-width:0.1477;stroke-linecap:round;stroke-miterlimit:22.9256;}
	.st34{fill-rule:evenodd;clip-rule:evenodd;fill:#EF7F1A;}
	.st35{fill-rule:evenodd;clip-rule:evenodd;}
	.st36{fill-rule:evenodd;clip-rule:evenodd;fill:#FEFEFE;}
	.st37{fill-rule:evenodd;clip-rule:evenodd;fill:#009846;}
	.st38{fill:#FF5000;}
	.st39{fill:#1F355E;}
	.st40{fill:#DDDB05;}
	.st41{fill:#168DCD;}
	.st42{fill:#E53524;}
	.st43{fill:#4ABED8;}
	.st44{fill:#163960;}
	.st45{fill:#00A7E1;}
	.st46{fill:#002D74;}
	.st47{fill:#E1251B;}
	.st48{fill:#4A5161;}
	.st49{fill:#F4AA03;}
	.st50{fill:#E65F07;}
	.st51{fill:#293480;}
	.st52{fill:#2D2D7E;}
	.st53{fill:#3E4996;}
	.st54{fill-rule:evenodd;clip-rule:evenodd;fill:#2D2D7E;}
	.st55{fill-rule:evenodd;clip-rule:evenodd;fill:#4A5161;}
</style>
<g>
	<path class="st48" d="M35.53,45.37c-0.54,0-1.28,0.03-1.85,0.05v3.32c0.6,0.06,1.28,0.11,1.88,0.11c1.48,0,2.56-0.63,2.56-1.8
		C38.12,45.97,37.3,45.37,35.53,45.37z"/>
	<path class="st48" d="M53.38,46.68c0-0.91-0.71-1.34-2.14-1.34c-0.54,0-1.75,0.05-2.34,0.09v2.62h2.42
		C52.44,48.05,53.38,47.65,53.38,46.68z"/>
	<path class="st48" d="M51.5,51.13h-2.6v2.68c0.32,0.06,1.66,0.14,2.45,0.14c1.65,0,2.51-0.49,2.51-1.45
		C53.87,51.58,52.98,51.13,51.5,51.13z"/>
	<path class="st48" d="M81.84,46.68c-0.75-7.99-4.42-15.35-10.36-20.72c-5.9-5.35-13.51-8.29-21.44-8.29c-0.99,0-2,0.05-3,0.14
		c-8.49,0.79-16.17,4.85-21.63,11.43c-5.46,6.58-8.03,14.88-7.24,23.37c0.75,7.98,4.42,15.34,10.36,20.72
		c5.9,5.35,13.52,8.29,21.45,8.29c0.99,0,2-0.05,3-0.14c8.5-0.79,16.19-4.85,21.65-11.42C80.06,63.49,82.63,55.19,81.84,46.68z
		 M72.65,68.44c-5.02,6.05-12.1,9.78-19.93,10.51c-0.92,0.09-1.85,0.13-2.76,0.13c-7.3,0-14.31-2.71-19.74-7.63
		c-5.46-4.95-8.85-11.73-9.53-19.08c-0.73-7.82,1.64-15.46,6.67-21.51c5.03-6.06,12.1-9.79,19.91-10.52
		c0.92-0.09,1.85-0.13,2.76-0.13c7.3,0,14.31,2.71,19.74,7.63c5.46,4.95,8.85,11.72,9.54,19.08C80.04,54.75,77.67,62.39,72.65,68.44
		z"/>
	<path class="st48" d="M68.74,28.98c-5.15-4.67-11.79-7.24-18.71-7.24c-0.87,0-1.75,0.04-2.62,0.12
		c-7.41,0.69-14.11,4.23-18.87,9.97c-4.76,5.74-7.01,12.98-6.32,20.39c0.65,6.97,3.86,13.39,9.04,18.08
		c5.15,4.67,11.79,7.23,18.71,7.23c0.87,0,1.75-0.04,2.62-0.12c7.42-0.69,14.13-4.23,18.88-9.96c4.76-5.73,7-12.98,6.31-20.4
		C77.13,40.09,73.92,33.67,68.74,28.98z M39.15,57.11l-3.57-4.98c-0.45,0-1.29-0.03-1.9-0.08v5.06H30.2V44.94l-0.4-2.46
		c1.24-0.19,3.74-0.4,5.36-0.4c5.04,0,6.67,2.1,6.67,4.98c0,1.94-0.91,3.45-2.58,4.31l4.34,5.74H39.15z M51.08,57.23
		c-1.6,0-3.87-0.11-5.64-0.23V44.98l-0.4-2.42c0.92-0.18,3.89-0.49,6.27-0.49c3.99,0,5.56,1.93,5.56,3.98
		c0,2.12-1.44,3.19-1.44,3.19v0.03c0,0,1.96,0.9,1.96,3.3C57.38,55.72,54.67,57.23,51.08,57.23z M71.35,45.43h-7.36v3.05h6.29v3.28
		h-6.29v5.36h-3.47V44.98l-0.39-2.83h11.7L71.35,45.43z"/>
</g>
</svg>
